svg/fluentui-system-icons/ic_fluent_developer_board_lightning_20_regular.svg

<svg width="20" height="20" viewBox="0 0 20 20" fill="none" xmlns="http://www.w3.org/2000/svg">
<path d="M10.9858 7.53959L10.5696 9.00006L12.0987 9.00002C12.4378 9.00001 12.6231 9.39556 12.406 9.65609L9.74761 12.8462C9.45537 13.1969 8.89233 12.8952 9.02235 12.4577L9.45547 11L7.89881 11C7.5593 11 7.37417 10.6037 7.59203 10.3433L10.2597 7.15496C10.5507 6.80721 11.11 7.10352 10.9858 7.53959ZM8 2.5C8 2.22386 7.77614 2 7.5 2C7.22386 2 7 2.22386 7 2.5V4H6.5C5.11929 4 4 5.11929 4 6.5V7H2.5C2.22386 7 2 7.22386 2 7.5C2 7.77614 2.22386 8 2.5 8H4V9.5H2.5C2.22386 9.5 2 9.72386 2 10C2 10.2761 2.22386 10.5 2.5 10.5H4V12H2.5C2.22386 12 2 12.2239 2 12.5C2 12.7761 2.22386 13 2.5 13H4V13.5C4 14.8807 5.11929 16 6.5 16H7V17.5C7 17.7761 7.22386 18 7.5 18C7.77614 18 8 17.7761 8 17.5V16H9.5V17.5C9.5 17.7761 9.72386 18 10 18C10.2761 18 10.5 17.7761 10.5 17.5V16H12V17.5C12 17.7761 12.2239 18 12.5 18C12.7761 18 13 17.7761 13 17.5V16H13.5C14.8807 16 16 14.8807 16 13.5V13H17.5C17.7761 13 18 12.7761 18 12.5C18 12.2239 17.7761 12 17.5 12H16V10.5H17.5C17.7761 10.5 18 10.2761 18 10C18 9.72386 17.7761 9.5 17.5 9.5H16V8H17.5C17.7761 8 18 7.77614 18 7.5C18 7.22386 17.7761 7 17.5 7H16V6.5C16 5.11929 14.8807 4 13.5 4H13V2.5C13 2.22386 12.7761 2 12.5 2C12.2239 2 12 2.22386 12 2.5V4H10.5V2.5C10.5 2.22386 10.2761 2 10 2C9.72386 2 9.5 2.22386 9.5 2.5V4H8V2.5ZM13.5 5C14.3284 5 15 5.67157 15 6.5V13.5C15 14.3284 14.3284 15 13.5 15H6.5C5.67157 15 5 14.3284 5 13.5V6.5C5 5.67157 5.67157 5 6.5 5H13.5Z" fill="#212121"/>
</svg>

<svg xmlns="http://www.w3.org/2000/svg" width="20" height="20"><path d="M10.986 7.54 10.57 9h1.529a.4.4 0 0 1 .307.656l-2.658 3.19c-.293.35-.856.05-.726-.388L9.455 11H7.9a.4.4 0 0 1-.307-.657l2.668-3.188c.29-.348.85-.051.726.385ZM8 2.5a.5.5 0 0 0-1 0V4h-.5A2.5 2.5 0 0 0 4 6.5V7H2.5a.5.5 0 0 0 0 1H4v1.5H2.5a.5.5 0 0 0 0 1H4V12H2.5a.5.5 0 0 0 0 1H4v.5A2.5 2.5 0 0 0 6.5 16H7v1.5a.5.5 0 0 0 1 0V16h1.5v1.5a.5.5 0 0 0 1 0V16H12v1.5a.5.5 0 0 0 1 0V16h.5a2.5 2.5 0 0 0 2.5-2.5V13h1.5a.5.5 0 0 0 0-1H16v-1.5h1.5a.5.5 0 0 0 0-1H16V8h1.5a.5.5 0 0 0 0-1H16v-.5A2.5 2.5 0 0 0 13.5 4H13V2.5a.5.5 0 0 0-1 0V4h-1.5V2.5a.5.5 0 0 0-1 0V4H8V2.5ZM13.5 5A1.5 1.5 0 0 1 15 6.5v7a1.5 1.5 0 0 1-1.5 1.5h-7A1.5 1.5 0 0 1 5 13.5v-7A1.5 1.5 0 0 1 6.5 5h7Z"/></svg>
